fonts/times-new-roman/bubble/glyphs/16_ayin.svg

<?xml version="1.0" encoding="utf-8"?>
<svg version="1.1" viewBox="-10 0 940 2048" xmlns="http://www.w3.org/2000/svg">
  <path fill="none" stroke="black" stroke-width="40" d="M 67 1667 L 109 1464 L 363.252 1432.344 C 363.252 1297.011 355.667 1213 319 1183 C 269 1141.667 238.5 1107.833 227.5 1081.5 C 216.5 1055.167 211 1024.333 211 989 C 211 948.333 205.237 885.682 219.237 805.015 C 114.57 785.682 75 741 75 667 C 75 610.333 88.333 555.667 115 503 L 142 503 C 152.667 547.667 181.333 572.667 228 578 L 275 582 C 354.333 590 394 639 394 729 C 394 749.667 390.667 769.333 384 788 C 341.333 800.667 316.242 809.046 284.908 809.046 C 284.908 885.046 275.667 932.667 281 956 C 286.333 979.333 303 1000.333 331 1019 C 372.333 1045.667 397.667 1069.167 407 1089.5 C 416.333 1109.833 421 1145.333 421 1196 L 434.893 1425.369 L 481 1418 C 520.333 1412 546.5 1401.333 559.5 1386 C 572.5 1370.667 587 1327 603 1255 C 618.333 1188.333 647.333 1109.333 690 1018 C 726.667 940 745 890.333 745 869 C 745 831 728 808.333 694 801 C 596 778.333 547 731 547 659 C 547 609.667 563.333 557.667 596 503 L 623 503 C 629 530.333 640.5 549.667 657.5 561 C 674.5 572.333 707 581.667 755 589 C 827 599.667 863 635.667 863 697 C 863 741 834.167 824 776.5 946 C 718.833 1068 690 1203.333 690 1352 C 690 1513.333 597.333 1605 412 1627 L 67 1667 Z"/>
</svg>

<?xml version="1.0" standalone="no"?>
<!DOCTYPE svg PUBLIC "-//W3C//DTD SVG 1.1//EN" "http://www.w3.org/Graphics/SVG/1.1/DTD/svg11.dtd" >
<svg xmlns="http://www.w3.org/2000/svg" xmlns:xlink="http://www.w3.org/1999/xlink" version="1.1" viewBox="-10 0 940 2048">
   <path fill="none" stroke="black" stroke-width="40"
d="M67 1667l42 -203l265 -33q0 -203 -55 -248q-75 -62 -91.5 -101.5t-16.5 -92.5q0 -61 21 -182q-157 -29 -157 -140q0 -85 40 -164h27q16 67 86 75l47 4q119 12 119 147q0 31 -10 59q-64 19 -111 19q0 114 8 149t50 63q62 40 76 70.5t14 106.5v230l60 -8q59 -9 78.5 -32
t43.5 -131q23 -100 87 -237q55 -117 55 -149q0 -57 -51 -68q-147 -34 -147 -142q0 -74 49 -156h27q9 41 34.5 58t97.5 28q108 16 108 108q0 66 -86.5 249t-86.5 406q0 242 -278 275z" />
</svg>
